!!!OTL: 1162. Jn den Rosen. / [Geistliches Trinklied der Nonnen am Niederrhein.]
!!!ODT: 15. Jahrh.
!!!ARE: Europa, Mitteleuropa, Deutschland, Niederrhein
!!!SCT: E1162
!!!TXL: @@DE
!!!YEM: Copyright 1995, estate of Helmut Schaffrath.
**kern	**text
*ICvox	*
*M4/4	*
*met(c)	*
*k[b-]	*
*F:	*
=1	=1
!LO:TX:a:t=Orig. hat Choralnoten.	!
!LO:TX:a:t=15. Jahrh.	!
{4f	Laßt
4f	uns
4g	fingn
4f	und
=2	=2
4e	fröh-
4e	-lich
2d}	ſein
=3	=3
{2c	in
2d	den
=4	=4
2e	Ro-
4f}	-ſen,
{4f	mit
=5	=5
4a	Je-
4a	-ſus
4a	und
4g	den
=6	=6
4a	Freun-
4g	-den
4f}	ſein!
{4f	Wer
=7	=7
4g	weiß
4g	wie
4g	lang
4g	wir
=8	=8
4f	hie
4g	ſolln
2a}	ſein
=9	=9
{2c	in
2d	den
=10	=10
2e	Ro-
4f	-ſen.
4r}	.
==	==
!!!AGN: Trink -, Zech - Lied, geistlich
!!!ONB: ESAC (Essen Associative Code) Database: ERK3
!!!AMT: simple quadruple
!!!AIN: vox
!!!EED: Helmut Schaffrath
!!!EEV: 1.0
!!!GTL: Trink- und Zechlieder.
!!!URL-scan: https://rosdok.uni-rostock.de/mcrviewer/recordIdentifier/rosdok_ppn745177999/iview2/phys_0090.iview2?x=188.1684953369795&y=873.5634567835368&scale=0.701185927818147&rotation=0&layout=singlePageLayout
!!!ENC: Anna Maria Matuszewska
!!!EEV: 2024/12/23
*-	*-
